icons/circle/48/spacemacs.svg

<svg version="1.1" viewBox="0 0 48 48" xmlns="http://www.w3.org/2000/svg" xmlns:xlink="http://www.w3.org/1999/xlink">
 <defs>
  <linearGradient id="linearGradient3764" x1="1" x2="47" gradientTransform="matrix(0 -1 1 0 -1.5e-6 48)" gradientUnits="userSpaceOnUse">
   <stop style="stop-color:#1e3146" offset="0"/>
   <stop style="stop-color:#243b54" offset="1"/>
  </linearGradient>
  <radialGradient id="radialGradient4526" cx="40" cy="513.33" r="13" gradientTransform="matrix(1.1538 0 0 1.1538 -22.154 -568.31)" gradientUnits="userSpaceOnUse">
   <stop style="stop-color:#9084ac" offset="0"/>
   <stop style="stop-color:#8578a4" offset="1"/>
  </radialGradient>
 </defs>
 <path d="m36.31 5c5.859 4.062 9.688 10.831 9.688 18.5 0 12.426-10.07 22.5-22.5 22.5-7.669 0-14.438-3.828-18.5-9.688 1.037 1.822 2.306 3.499 3.781 4.969 4.085 3.712 9.514 5.969 15.469 5.969 12.703 0 23-10.298 23-23 0-5.954-2.256-11.384-5.969-15.469-1.469-1.475-3.147-2.744-4.969-3.781zm4.969 3.781c3.854 4.113 6.219 9.637 6.219 15.719 0 12.703-10.297 23-23 23-6.081 0-11.606-2.364-15.719-6.219 4.16 4.144 9.883 6.719 16.219 6.719 12.703 0 23-10.298 23-23 0-6.335-2.575-12.06-6.719-16.219z" style="opacity:.05"/>
 <path d="m41.28 8.781c3.712 4.085 5.969 9.514 5.969 15.469 0 12.703-10.297 23-23 23-5.954 0-11.384-2.256-15.469-5.969 4.113 3.854 9.637 6.219 15.719 6.219 12.703 0 23-10.298 23-23 0-6.081-2.364-11.606-6.219-15.719z" style="opacity:.1"/>
 <path d="m31.25 2.375c8.615 3.154 14.75 11.417 14.75 21.13 0 12.426-10.07 22.5-22.5 22.5-9.708 0-17.971-6.135-21.12-14.75a23 23 0 0 0 44.875 -7 23 23 0 0 0 -16 -21.875z" style="opacity:.2"/>
 <path d="m24 1c12.703 0 23 10.297 23 23s-10.297 23-23 23-23-10.297-23-23 10.297-23 23-23z" style="fill:url(#linearGradient3764)"/>
 <path d="m40.03 7.531c3.712 4.084 5.969 9.514 5.969 15.469 0 12.703-10.297 23-23 23-5.954 0-11.384-2.256-15.469-5.969 4.178 4.291 10.01 6.969 16.469 6.969 12.703 0 23-10.298 23-23 0-6.462-2.677-12.291-6.969-16.469z" style="opacity:.1"/>
 <circle cx="25" cy="25" r="15" style="opacity:.1"/>
 <path d="m22.012 9.1504a15 15 0 0 0 -13.012 14.85 15 15 0 0 0 15 15 15 15 0 0 0 15 -15 15 15 0 0 0 -13 -14.85h-3.9883z" style="fill:url(#radialGradient4526)"/>
 <path d="m24 9-1 17c-3-2-5-4-8-9v6c3 4 6 7 10 14 4-7 7-10 10-14v-6c-3 5-5 7-8 9v-16.695c-0.98723-0.20207-1.9923-0.30415-3-0.30469z" style="opacity:.1"/>
 <path d="m24 9c-0.66932 0.0061-1.3375 0.054652-2 0.15v15.85c-3-2-5-4-8-9v6c3 4 6 7 10 14 0.81066-1.6213 0.96462-19.667 0.46094-26.977-0.15352-0.010176-0.30718-0.017989-0.46094-0.023438z" style="fill:#dcdcdc"/>
 <path d="m24 9v27c4-7 7-10 10-14v-6c-3 5-5 7-8 9v-15.85a15 15 0 0 0 -2 -0.15039z" style="fill:#f9f9f9"/>
</svg>

<svg viewBox="0 0 48 48" xmlns="http://www.w3.org/2000/svg">
  <defs>
    <linearGradient id="a" x1="1" x2="47" gradientTransform="rotate(-90 24 24)" gradientUnits="userSpaceOnUse">
      <stop offset="0" stop-color="#1e3146"/>
      <stop offset="1" stop-color="#243b54"/>
    </linearGradient>
    <radialGradient id="b" cx="40" cy="513.33" r="13" gradientTransform="translate(-22.154 -568.31) scale(1.1538)" gradientUnits="userSpaceOnUse">
      <stop offset="0" stop-color="#9084ac"/>
      <stop offset="1" stop-color="#8578a4"/>
    </radialGradient>
  </defs>
  <path d="M36.31 5c5.859 4.062 9.688 10.831 9.688 18.5 0 12.426-10.07 22.5-22.5 22.5-7.669 0-14.438-3.828-18.5-9.688a23.24 23.24 0 0 0 3.781 4.969 22.923 22.923 0 0 0 15.469 5.969c12.703 0 23-10.298 23-23a22.92 22.92 0 0 0-5.969-15.469A23.216 23.216 0 0 0 36.31 5zm4.969 3.781A22.911 22.911 0 0 1 47.498 24.5c0 12.703-10.297 23-23 23a22.909 22.909 0 0 1-15.719-6.219C12.939 45.425 18.662 48 24.998 48c12.703 0 23-10.298 23-23 0-6.335-2.575-12.06-6.719-16.219z" opacity=".05"/>
  <path d="M41.28 8.781a22.923 22.923 0 0 1 5.969 15.469c0 12.703-10.297 23-23 23A22.92 22.92 0 0 1 8.78 41.281 22.911 22.911 0 0 0 24.499 47.5c12.703 0 23-10.298 23-23A22.909 22.909 0 0 0 41.28 8.781z" opacity=".1"/>
  <path d="M31.25 2.375C39.865 5.529 46 13.792 46 23.505c0 12.426-10.07 22.5-22.5 22.5-9.708 0-17.971-6.135-21.12-14.75a23 23 0 0 0 44.875-7 23 23 0 0 0-16-21.875z" opacity=".2"/>
  <path d="M24 1c12.703 0 23 10.297 23 23S36.703 47 24 47 1 36.703 1 24 11.297 1 24 1z" fill="url(#a)"/>
  <path d="M40.03 7.531A22.922 22.922 0 0 1 45.999 23c0 12.703-10.297 23-23 23A22.92 22.92 0 0 1 7.53 40.031C11.708 44.322 17.54 47 23.999 47c12.703 0 23-10.298 23-23 0-6.462-2.677-12.291-6.969-16.469z" opacity=".1"/>
  <circle cx="25" cy="25" r="15" opacity=".1"/>
  <path d="M22.012 9.15A15 15 0 0 0 9 24a15 15 0 0 0 15 15 15 15 0 0 0 15-15A15 15 0 0 0 26 9.15h-3.988z" fill="url(#b)"/>
  <path d="M24 9l-1 17c-3-2-5-4-8-9v6c3 4 6 7 10 14 4-7 7-10 10-14v-6c-3 5-5 7-8 9V9.305A15 15 0 0 0 24 9z" opacity=".1"/>
  <path d="M24 9c-.67.006-1.337.055-2 .15V25c-3-2-5-4-8-9v6c3 4 6 7 10 14 .81-1.621.965-19.667.46-26.977-.153-.01-.306-.018-.46-.023z" fill="#dcdcdc"/>
  <path d="M24 9v27c4-7 7-10 10-14v-6c-3 5-5 7-8 9V9.15A15 15 0 0 0 24 9z" fill="#f9f9f9"/>
</svg>
